X:1
T:Above the Hills of Time
T:Traditional Irish melody
T:Above the Hills of Time
T:Public Domain
T:Public Domain
T:Public Domain
C:Traditional Irish melody
Z:Public Domain
%%score ( 1 2 ) ( 3 4 )
L:1/8
M:4/4
K:Db
V:1 treble 
V:2 treble 
V:3 bass 
V:4 bass 
V:1
 CD[CE] | [DF]3 E [DF][DB][DA][DF] | (ED) B,3 [A,D][DF][CG] | [DA]3 [DB] [DA][DF]D[DF] | %4
w: 1.~A- bove the|time the cross is gleam- ing,|as * the sun when night|to day; And from it love’s|
w: 2.~The cross, O|won- drous love re- veal- ing,|wakes * our hearts as with|of morn, And par- don o’er|
 [CE]4- [CE][A,C]D[CE] | [DF]3 E [DF][DB][DA][DF] | (ED) (B,>A, [G,B,])[A,C]D[CE] | %7
w: light * is rich- ly|ing, To cleanse the heart and|ish * sin * * a- way. To|
w: sin- * ful spir- its|ing, Tells us that we, in|have * been * * re- born. Like|
 [DF]3 [DG] [DF][CE]D[CE] | D4- D[DA][DB][Gc] | [Fd]3 [Ec] [Gc][GB][EA][DF] | %10
w: the eyes of men are turn-|To- * day as in|ag- es lost to sight; And|
w: sweet tem- ple bells re- ply-|Our * hearts, O Lord,|ans- wer to Thy love; And|
 (AF) D3 [DA][DB][Gc] | [Fd]3 [Ec] [Gc][GB][DA][DF] | (D2 CB, [CE])[EA]AA | %13
w: so * for Thee, O Christ,|are yearn- ing, As ship- wrecked|sea- * * * men yearn for|
w: we * will love Thee with|un- dy- ing, Till we are|ga- * * * thered to Thy|
 [Af]3 [Ge] [Ge][Fd][GB][Dd] | (AF) D3 CD[CE] | [DF][DB][DA][DF] (ED)(B,[A,C]) | [A,D]4- [A,D] |] %17
w: ||||
w: ||||
V:2
 CD x | x3 E x4 | B,2 B,3 x3 | x6 D x | x6 D x | x3 E x4 | B,2 G,2- x/ D x5/2 | x6 D x | D4- D x3 | %9
w: hills of|Fair|has turned|pure|stream-|ban-|this dear cross|ing,|the *|
w: Christ, Thy|A-|the light|our|steal-|Thee,|e- choes to|ing|make *|
 x8 | D2 D3 x3 | x8 | E4- AA x2 | x8 | D2 x2 CD x2 | x4 B,2 x2 | x5 |] %17
w: |men’s hearts||morn- ing light.|||||
w: |a love||home a- bove.|||||
V:3
 [G,A,][F,A,][E,A,] | [D,A,]3 [C,A,] [D,A,]G,[F,A,][D,A,] | G,2 G,3 [F,A,][D,A,][E,A,] | %3
 [F,A,]3 G, [F,A,][D,A,][B,,B,][=A,,B,] | [A,,E,]4- [A,,E,][G,A,][F,A,][E,A,] | %5
 [D,A,]3 [C,A,] [D,A,]G,[F,A,][D,A,] | G,2 [G,,D,]3 [G,A,][F,A,][E,A,] | %7
 [D,A,]3 [G,,B,] [A,,A,][A,,G,][B,,F,][A,,A,] | [D,F,]4- [D,F,][D,F,][E,D][E,A,] | %9
 [D,A,]3 A, [G,D][G,D][A,C]B, | (F,D,) [B,,F,B,]3 [F,A,][G,D][E,A,] | %11
 [D,A,]3 A, [G,D][G,D][F,A,][D,A,] | [A,,A,]4- [A,,A,][A,C][B,D][CE] | %13
 [DF]3 [A,C] [=A,C][B,D][G,D][G,B,] | (F,D,) [B,,B,]3 [G,A,][F,A,][E,A,] | %15
 [D,A,][G,B,][F,D][D,A,] [G,,G,]2 (E,G,) | [D,F,]4- [D,F,] |] %17
V:4
 x3 | x5 G, x2 | G,2 G,3 x3 | x3 G, x4 | x8 | x8 | G,2 x6 | x8 | x8 | x7 B, | A,2 x6 | x8 | x8 | %13
 x8 | A,2 x6 | x6 A,,2 | x5 |] %17

